X:358
T:A Cholum
T:A Dream
Z:Jack Campin, http://www.campin.me.uk/
F:Jack Campin's Nine-Note Tunebook
% last edit 25-02-2013
S:Kostakovsky, Hebrew Wedding Music, p52
M:2/4
L:1/8
Q:1/4=90
K:Dmin
  D   |  G  F2  E  |  G F2 E|(G>F) (F>E)|ED z
  D   |(3FAG   GG  |  GF  AG| F4        |c3  ||
|:C   | (F>G) (A>G)|  G F2 E|(G>F) (F>E)|E D2
 [A,C]|  DE    FE  |(3FAG FE| D4-       |D2 z:|

